X:1
T:Title
%%score ( 1 2 ) ( 3 4 )
L:1/8
Q:1/4=85
M:4/4
K:Bb
V:1 treble nm="Grand Piano, Soprano"
V:2 treble 
V:3 bass nm="Choir Pad, What a Greeting"
V:4 bass 
V:1
 [B,D][CE] [DF]>[DB] [DB]>[DB] [DB]>[FA] | [EG][DF] [CE]>[EA] [EA]>[EA] [EA]2 | %2
w: By~Haldor~Lillenas * * * * * * *||
 C[B,D] [B,E]>[EA] [EA]>[EA] [EA]>[EG] | [DF][CE] [B,D]>[DF] [DF]>[DG] [DF]2 | %4
w: ||
 [B,D][CE] [DF]>[DB] [DB]>[DB] [DB]>[FA] | [EG][DF] [CE]>[EA] [EA]>[EA] [EA]2 | %6
w: ||
 [=EA][EB] [Ec]>[Ed] [Ec]>[EB] [EA]>[EB] | [=EA][EG] [CF]2 [CE]2 F-[_EF] | z2 F4 z2 | z2 G4 z2 | %10
w: ||||
 [EA]>[EG] [DF]>[EG] [DF]>[CE] C2 | z2[K:bass] D6 | z2[K:treble] F4 z2 | d>d [Ec]>E [Fd]>F [Ge]>G | %14
w: ||||
 [Fd][Ec] [DB]>[DF] [_D=E]>[=DF] [Fd]2 | [Fd]>[Ec] [DB]6- | [DB]2 z2 z4 |] %17
w: |||
V:2
 x8 | x8 | x8 | x8 | x8 | x8 | x8 | z4 z2 .C2 | D>E z2 D>D [DB]>D | B>A z2 E>E E>E | x8 | %11
 [CF]>[CE][K:bass] B,2 B,>B, B,2 | D>[K:treble]E z2 D>D [DB]>D | x8 | x8 | x8 | x8 |] %17
V:3
 [B,,F,][B,,F,] [B,,B,]>[B,,B,] [B,,B,]>[B,,B,] [B,,B,]>[D,B,] | %1
 [E,B,][F,B,] [F,A,]>[F,C] [F,C]>[F,C] [F,C]2 | %2
 [F,A,][F,B,] [F,A,]>[F,C] [F,C]>[F,C] [F,C]>[F,B,] | %3
 [F,B,][F,A,] [B,,F,]>[B,,B,] [B,,B,]>[B,,B,] [B,,B,]2 | %4
 [B,,F,][B,,F,] [B,,B,]>[B,,B,] [B,,B,]>[B,,B,] [B,,B,]>[D,B,] | %5
 [E,B,][F,B,] [F,A,]>[F,C] [F,C]>[F,C] [F,C]2 | [C,C][C,C] [C,C]>[C,C] [C,C]>[C,C] [C,C]>[C,C] | %7
 [C,C][C,B,] [F,A,]2 G,B, [F,A,]2 | z4 [B,,B,]>[B,,B,] [B,,B,]>[B,,B,] | %9
 z4 [E,B,]>[E,B,] [E,B,]>[E,B,] | [E,B,]>[E,B,] [F,B,]>[F,A,] [F,B,]>[F,A,] [F,A,]2 | %11
 [F,A,]>[F,A,] [B,,F,]2 [B,,F,]>[B,,F,] [B,,F,]2 | z4 [B,,B,]>[B,,B,] [B,,B,]>[B,,B,] | %13
 z2 [E,B,]>[E,B,] [D,=B,]>[D,B,] [C,C]>[C,C] | [D,=B,][E,_B,] [F,B,]>[F,B,] [G,B,]>[F,B,] [F,B,]2 | %15
 [F,B,]>[F,A,] [B,,B,]6- | [B,,B,]2 z2 z4 |] %17
V:4
 x8 | x8 | x8 | x8 | x8 | x8 | x8 | z4 C,2 z2 | x8 | x8 | x8 | x8 | x8 | x8 | x8 | x8 | x8 |] %17

